Numix/16/mimetypes/x-office-calendar.svg

<?xml version="1.0" encoding="UTF-8" standalone="no"?>
<svg
   xmlns:dc="http://purl.org/dc/elements/1.1/"
   xmlns:cc="http://creativecommons.org/ns#"
   xmlns:rdf="http://www.w3.org/1999/02/22-rdf-syntax-ns#"
   xmlns:svg="http://www.w3.org/2000/svg"
   xmlns="http://www.w3.org/2000/svg"
   xmlns:sodipodi="http://sodipodi.sourceforge.net/DTD/sodipodi-0.dtd"
   xmlns:inkscape="http://www.inkscape.org/namespaces/inkscape"
   width="16"
   height="16"
   viewBox="0 0 16 16"
   id="svg2"
   version="1.1"
   inkscape:version="0.91 r13725"
   sodipodi:docname="x-office-calendar.svg">
  <metadata
     id="metadata16">
    <rdf:RDF>
      <cc:Work
         rdf:about="">
        <dc:format>image/svg+xml</dc:format>
        <dc:type
           rdf:resource="http://purl.org/dc/dcmitype/StillImage" />
      </cc:Work>
    </rdf:RDF>
  </metadata>
  <defs
     id="defs14" />
  <sodipodi:namedview
     pagecolor="#ffffff"
     bordercolor="#666666"
     borderopacity="1"
     objecttolerance="10"
     gridtolerance="10"
     guidetolerance="10"
     inkscape:pageopacity="0"
     inkscape:pageshadow="2"
     inkscape:window-width="1366"
     inkscape:window-height="704"
     id="namedview12"
     showgrid="false"
     inkscape:zoom="1"
     inkscape:cx="9.3718021"
     inkscape:cy="6.6065603"
     inkscape:window-x="0"
     inkscape:window-y="27"
     inkscape:window-maximized="1"
     inkscape:current-layer="svg2">
    <inkscape:grid
       type="xygrid"
       id="grid3004" />
  </sodipodi:namedview>
  <path
     style="fill:#dc322f;fill-opacity:1"
     d="M 2.667969,-4.46e-4 C 2.324219,-4.46e-4 2,0.337812 2,0.6964467 L 2,15.303108 C 2,15.641365 2.34375,16 2.667969,16 l 10.664062,0 C 13.65625,16 14,15.641365 14,15.303108 L 14,3.9995538 10,-4.46e-4 z"
     id="path4-6"
     inkscape:connector-curvature="0"
     sodipodi:nodetypes="ssssssccs" />
  <path
     style="fill:#ffffff"
     d="M 4,5 3.9998557,7 12,7 12,5 Z M 3.9998557,8 4,13 l 8,0 0,-5 z m 5.4428784,0.4525682 c 0.2916719,0 0.5468859,0.072917 0.7656389,0.208337 0.218754,0.1354185 0.385423,0.322922 0.500009,0.5833439 0.114586,0.2552126 0.182296,0.5573008 0.182296,0.9166839 0,0.765638 -0.161462,1.338565 -0.489593,1.71878 -0.322922,0.380215 -0.8229311,0.567719 -1.4844018,0.567719 -0.2343789,0 -0.406258,-0.01563 -0.5260508,-0.04167 l 0,-0.651053 c 0.1510441,0.03646 0.3072976,0.05729 0.4687578,0.05729 0.2812558,0 0.5052185,-0.04688 0.6823043,-0.125002 0.1770859,-0.08333 0.3229232,-0.203129 0.4166742,-0.375007 0.093751,-0.177087 0.1510443,-0.416674 0.1666693,-0.723972 l -0.04167,0 c -0.1041685,0.16667 -0.2239627,0.281256 -0.3593812,0.348965 -0.1406278,0.06771 -0.2968813,0.109377 -0.500009,0.109377 -0.3437569,0 -0.6250113,-0.114586 -0.8229322,-0.333339 -0.1979196,-0.218754 -0.291672,-0.515635 -0.291672,-0.9010586 0,-0.4166741 0.1250023,-0.760431 0.3645906,-1.000018 0.239587,-0.2447965 0.5573021,-0.3593812 0.9687699,-0.3593762 z m -3.1562703,0.041668 0.6927205,0 0,3.9011119 -0.8333484,0 L 6.1614619,9.3692519 5.4270737,9.9942628 5.0208156,9.4942538 Z M 9.3489831,9.119247 c -0.1145861,0.020832 -0.2187547,0.078125 -0.291672,0.1666697 -0.09896,0.1145847 -0.1406279,0.2916719 -0.1406279,0.5104252 0,0.1875034 0.036459,0.3333391 0.1250023,0.4479251 0.088543,0.109377 0.2239627,0.16667 0.4010486,0.16667 0.1718791,0 0.3125056,-0.0625 0.4322998,-0.16667 0.1197942,-0.114586 0.1822951,-0.23438 0.1822951,-0.3750066 0,-0.2135465 -0.05729,-0.3958418 -0.1666695,-0.5416764 -0.114586,-0.1458373 -0.260422,-0.208337 -0.4322998,-0.208337 -0.041667,0 -0.072919,-0.010417 -0.1093766,0 z"
     id="path10"
     inkscape:connector-curvature="0"
     sodipodi:nodetypes="cccccccccccscscsccscccccsssccccccccccccscscscsc" />
  <path
     style="fill:#000000;fill-opacity:0.19599998"
     d="m 10.583223,3.3315848 0.0154,0.01953 0.04005,-0.01953 z m 0.02978,0.667969 3.387,3.664062 0,-3.664062 z"
     id="path6"
     inkscape:connector-curvature="0"
     sodipodi:nodetypes="cccccccc" />
  <path
     style="fill:#ffffff;fill-opacity:0.39200003"
     d="m 10,-4.46e-4 3.996396,3.9999998 -3.383784,0 C 10.313513,3.9995538 10,3.6824368 10,3.3833378 z"
     id="path8"
     inkscape:connector-curvature="0"
     sodipodi:nodetypes="ccssc" />
</svg>

<svg xmlns="http://www.w3.org/2000/svg" viewBox="0 0 16 16">
 <path d="m 2.668 0 c -0.344 0 -0.668 0.338 -0.668 0.697 l 0 14.607 c 0 0.338 0.344 0.697 0.668 0.697 l 10.664 0 c 0.324 0 0.668 -0.359 0.668 -0.697 l 0 -11.304 -4 -4 z" style="fill:#dc322f;fill-opacity:1"/>
 <path d="m 4 5 0 2 8 0 0 -2 m -8 3 0 5 l 8 0 0 -5 z m 5.443 0.453 c 0.292 0 0.547 0.073 0.766 0.208 0.219 0.135 0.385 0.323 0.5 0.583 0.115 0.255 0.182 0.557 0.182 0.917 0 0.766 -0.161 1.339 -0.49 1.719 -0.323 0.38 -0.823 0.568 -1.484 0.568 -0.234 0 -0.406 -0.016 -0.526 -0.042 l 0 -0.651 c 0.151 0.036 0.307 0.057 0.469 0.057 0.281 0 0.505 -0.047 0.682 -0.125 0.177 -0.083 0.323 -0.203 0.417 -0.375 0.094 -0.177 0.151 -0.417 0.167 -0.724 l -0.042 0 c -0.104 0.167 -0.224 0.281 -0.359 0.349 -0.141 0.068 -0.297 0.109 -0.5 0.109 -0.344 0 -0.625 -0.115 -0.823 -0.333 -0.198 -0.219 -0.292 -0.516 -0.292 -0.901 0 -0.417 0.125 -0.76 0.365 -1 0.24 -0.245 0.557 -0.359 0.969 -0.359 z m -3.156 0.042 0.693 0 0 3.901 -0.833 0 l 0.016 -3.03 -0.734 0.625 -0.406 -0.5 m 4.328 -0.375 c -0.115 0.021 -0.219 0.078 -0.292 0.167 -0.099 0.115 -0.141 0.292 -0.141 0.51 0 0.188 0.036 0.333 0.125 0.448 0.089 0.109 0.224 0.167 0.401 0.167 0.172 0 0.313 -0.063 0.432 -0.167 0.12 -0.115 0.182 -0.234 0.182 -0.375 0 -0.214 -0.057 -0.396 -0.167 -0.542 -0.115 -0.146 -0.26 -0.208 -0.432 -0.208 -0.042 0 -0.073 -0.01 -0.109 0 z" style="fill:#fff"/>
 <path d="m 10.583 3.332 0.015 0.02 0.04 -0.02 z m 0.03 0.668 3.387 3.664 0 -3.664 z" style="fill:#000;fill-opacity:0.196"/>
 <path d="m 10 0 3.996 4 -3.384 0 c -0.299 0 -0.613 -0.317 -0.613 -0.616 z" style="fill:#fff;fill-opacity:0.392"/>
</svg>
